X:1
T:Title
%%score { 1 | ( 2 3 ) }
L:1/8
M:6/8
K:G
V:1 treble nm="Grand Piano"
V:2 bass 
V:3 bass 
V:1
 z3 z2[Q:1/4=100] [B,D] | [B,D]>[B,E][CF] [B,G][CA][DB] | [EA]>[EG][CE] [B,D]2 [B,D] | %3
 [B,G]>[B,G][B,G] [B,G][CA][DB] | B>AG A2 D | B>BB Bdd | [Ed]>[Ec][Ec] [CEG]2 [EGA] | %7
 [DGB][DGB][EGc] [DGB]2 [CFA] |[M:5/8] G- G3 z |[M:1/8] B |[M:3/4] d>^c d e2 d | d3 B z B | %12
 B>_B =B [Ad]2 [GB] |[M:5/8] [FA]- [FA]3 z |[M:1/8] D |[M:3/4] DG A B2 G | %16
[M:7/8] [Fc]2 [DFA] [DGd]3 [EG] |[M:3/4] [DGB]>[CFA] [B,G] [CFA]2 [B,DG] | %18
[M:5/8] [B,DG]- [B,DG]3 z |] %19
V:2
 z3 z2 [G,,G,] | [G,,G,]>[G,,G,][G,,G,] [G,,G,][G,,G,][G,,G,] | %2
 [C,G,]>[C,G,][C,G,] [G,,G,]2 [G,,G,] | [G,,G,]>[G,,G,][G,,G,] [G,,G,][G,,G,][G,,G,] | %4
 [G,D]>[F,A,D][E,A,^C] [D,F,D]2 [D,F,] | [G,D]>[G,D][G,D] [G,D][G,B,G][G,B,=F] | %6
 [C,C]>[C,G,][C,G,] C,2 C, | D,D,D, D,2 D, |[M:5/8] [G,B,]- [G,B,]3 z |[M:1/8][K:treble] [G,DG] | %10
[M:3/4] [G,B,G]>[G,_B,G] [G,=B,G] [G,CG]2 [G,B,G] | [G,G]3- [G,DG] z [G,DG] | %12
 [G,DG]>[G,^CG] [G,DG][K:bass] [F,D]2 [G,D] |[M:5/8] [D,D]- [D,D]3 z |[M:1/8] [F,A,C] | %15
[M:3/4] [G,B,][G,B,] [G,C] [G,D]2 [G,B,D] |[M:7/8] [D,A,]2 C, B,,3 C, |[M:3/4] D,>D, D, D,2 G,, | %18
[M:5/8] G,,- G,,3 z |] %19
V:3
 x6 | x6 | x6 | x6 | x6 | x6 | x6 | x6 |[M:5/8] x5 |[M:1/8][K:treble] x |[M:3/4] x6 | B,4 z2 | %12
 x3[K:bass] x3 |[M:5/8] x5 |[M:1/8] x |[M:3/4] x6 |[M:7/8] x7 |[M:3/4] x6 |[M:5/8] x5 |] %19

